icons/tag-arrow-left-outline.svg

<svg xmlns="http://www.w3.org/2000/svg" width="24" height="24" viewBox="0 0 24 24">
  <path d="M13,2 C13.2652165,2 13.5195704,2.10535684 13.7071068,2.29289322 L13.7071068,2.29289322 L21.2928932,9.87867966 C22.4644661,11.0502525 22.4644661,12.9497475 21.2928932,14.1213203 L21.2928932,14.1213203 L14.1213203,21.2928932 C12.9497475,22.4644661 11.0502525,22.4644661 9.87867966,21.2928932 L9.87867966,21.2928932 L2.29289322,13.7071068 C2.10535684,13.5195704 2,13.2652165 2,13 L2,13 L2,5 C2,3.34314575 3.34314575,2 5,2 L5,2 Z M12.585,4 L5,4 C4.44771525,4 4,4.44771525 4,5 L4,5 L4,12.585 L11.2928932,19.8786797 C11.6533772,20.2391636 12.2206082,20.2668932 12.6128994,19.9618683 L12.6128994,19.9618683 L12.7071068,19.8786797 L19.8786797,12.7071068 C20.2692039,12.3165825 20.2692039,11.6834175 19.8786797,11.2928932 L19.8786797,11.2928932 L12.585,4 Z M8.001,12.059 L8.002,12.059 L8,12.018 L8,12 L8.00004511,11.9904013 L8.00018018,11.980824 L8.0017331,11.9409686 C8.00232561,11.9308872 8.00307004,11.9208131 8.00399798,11.909968 L8.00399798,11.909968 L8.0110178,11.8515331 C8.01362808,11.834051 8.01670217,11.8166247 8.02016515,11.7992059 C8.0246398,11.7772539 8.02983363,11.7555635 8.03584514,11.734007 C8.04009773,11.7185367 8.04472872,11.7031487 8.04954668,11.6882636 C8.05612249,11.6682023 8.06331574,11.6484208 8.07122549,11.628664 L8.07122549,11.628664 L8.09365378,11.5769009 C8.10337664,11.5561086 8.11379392,11.5357061 8.12467117,11.5159379 L8.12467117,11.5159379 L8.14606743,11.4793398 C8.1617187,11.453725 8.17849009,11.4288693 8.19633458,11.4046934 L8.19633458,11.4046934 L8.22,11.374 L8.216,11.378 L8.21968877,11.374551 L8.232,11.359 L8.24220802,11.347434 L8.24220802,11.347434 L8.29289322,11.2928932 L11.2928932,8.29289322 L11.3871006,8.20970461 C11.7793918,7.90467972 12.3466228,7.93240926 12.7071068,8.29289322 C13.0976311,8.68341751 13.0976311,9.31658249 12.7071068,9.70710678 L12.7071068,9.70710678 L11.415,11 L15,11 L15.1166211,11.0067277 C15.6139598,11.0644928 16,11.4871642 16,12 C16,12.5522847 15.5522847,13 15,13 L15,13 L11.415,13 L12.7071068,14.2928932 L12.7902954,14.3871006 C13.0953203,14.7793918 13.0675907,15.3466228 12.7071068,15.7071068 C12.3165825,16.0976311 11.6834175,16.0976311 11.2928932,15.7071068 L11.2928932,15.7071068 L8.29289322,12.7071068 L8.21968877,12.625449 C8.2173721,12.6225624 8.21507113,12.6196628 8.20970461,12.6128994 C8.20517454,12.6070733 8.20071786,12.6012086 8.19631351,12.5951593 C8.17849009,12.5711307 8.1617187,12.546275 8.14599545,12.5207088 C8.13860692,12.5086131 8.13149883,12.4963944 8.12487577,12.484277 C8.11379392,12.4642939 8.10337664,12.4438914 8.09367336,12.4232215 L8.09367336,12.4232215 L8.07110396,12.3710585 C8.06331574,12.3515792 8.05612249,12.3317977 8.04973809,12.3121425 C8.04472872,12.2968513 8.04009773,12.2814633 8.03572097,12.2658396 C8.02983363,12.2444365 8.0246398,12.2227461 8.02024007,12.2007258 C8.01670217,12.1833753 8.01362808,12.165949 8.01101934,12.1489612 C8.00376119,12.1003621 8,12.0506203 8,12 L8.001,12.059 Z"/>
</svg>

<svg xmlns="http://www.w3.org/2000/svg" viewBox="0 0 24 24">
  <path d="M13 2a1 1 0 0 1 .7.3l7.6 7.58a3 3 0 0 1 0 4.24l-7.18 7.17a3 3 0 0 1-4.24 0l-7.59-7.58A1 1 0 0 1 2 13V5a3 3 0 0 1 3-3zm-.41 2H5a1 1 0 0 0-1 1v7.59l7.3 7.29a1 1 0 0 0 1.31.08l.1-.08 7.17-7.17a1 1 0 0 0 0-1.42L12.58 4zM8 12.06v-.15l.01-.06a1.1 1.1 0 0 1 .06-.22l.02-.05.03-.06.03-.04.05-.08.02-.03.01-.01.01-.01.05-.06 3-3 .1-.08a1 1 0 0 1 1.32 1.5L11.4 11h3.71a1 1 0 0 1-.12 2H11.4l1.3 1.3.08.09a1 1 0 0 1-1.5 1.32l-3-3-.07-.08a3.01 3.01 0 0 1-.1-.15 1.02 1.02 0 0 1-.03-.06l-.02-.05A.95.95 0 0 1 8 12v.06z"/>
</svg>
